X:1
T:Title
%%score { ( 1 4 ) | ( 2 3 ) }
L:1/8
M:6/8
K:E
V:1 treble nm="Grand Piano"
V:4 treble 
V:2 bass 
V:3 bass 
V:1
 z3 z2[Q:1/4=95] B | B^AB G2 E | EDE B,2 B, | E2 G B2 G | GFE [DF]2 [DB] | B^AB G2 E | EDE B,2 B, | %7
 E2 G B2 [CEA] |[M:2/4] [B,EG]2 [A,DF][G,E]- | [G,E]4 | [DFB][DFB] [Gc][FAd] |[M:6/4] .e12 | %12
[M:4/4] e8 |[M:2/4] GG AB |[M:6/4] .c12 |[M:4/4] B8 |[M:2/4] BB ^AB |[M:6/4] .G12 | %18
[M:4/4][K:bass] B,8 |[M:2/4] B,[K:treble] E2 G |[M:6/4] .B12 |[M:9/8] E6- E2 z |] %22
V:2
 z3 z2 [E,G,E] | [E,E]-[E,=G,E][E,^G,E] [E,B,E]2 [E,G,] | .G,3 z3 | %3
 [E,G,B,]2 [E,B,E] [E,G,E]2 [E,B,E] | .B,3 z3 | .[E,E]3 z3 | .G,3 z3 | %7
 [E,G,B,]2 [E,B,E] [E,G,E]2 A,, |[M:2/4] B,,2 B,,E,- | E,4 | .B,2 EB, | %11
[M:6/4] E,2 [E,B,] [E,B,]2 [E,B,] [E,B,]2[K:treble] [B,DF][DF][EG][B,FA] | %12
[M:4/4][K:bass] [E,E]2 [E,B,][E,B,]- [E,B,][E,B,] [E,B,]2 |[M:2/4] z B, z2 | %14
[M:6/4] [A,E]2 A, A,2 A, A,2 [G,B,E] [F,B,F]2 [F,^A,E] | %15
[M:4/4] [B,,B,]2 [B,,B,][B,,B,]- [B,,B,][B,,B,] [B,,F,]2 |[M:2/4] z .[E,E]3 | %17
[M:6/4] [E,B,E]2 [E,B,] [E,B,]2 [E,B,] [E,B,]2 [E,G,B,][E,B,]-[E,A,B,][E,G,B,] | %18
[M:4/4] [E,G,]2 E,E,- E,E, E,2 |[M:2/4] [E,G,] [E,G,B,]2 [E,B,E] | %20
[M:6/4] [E,G,E]2 [E,G,] [E,G,]2 [E,G,] [E,G,]2 A,, B,,2 B,, |[M:9/8] z3 A,A,A, .G,3 |] %22
V:3
 x6 | .G,3 z3 | [E,B,]-[E,A,B,][E,G,B,] [E,G,]2 [E,G,] | x6 | %4
 [E,E]-[E,A,E][E,G,] [B,,B,]2 [B,,A,] | G,=G,[E,^G,E] [E,B,E]2 [E,G,] | %6
 [E,B,]-[E,A,B,][E,G,B,] [E,G,]2 [E,G,] | x6 |[M:2/4] x4 | x4 | z .B,3 | %11
[M:6/4] z6 z2[K:treble] z .B,3 |[M:4/4][K:bass] x8 |[M:2/4] [E,B,E][E,E]- [E,F,E][E,G,E] | %14
[M:6/4] x12 |[M:4/4] x8 |[M:2/4] [E,G,E]G, =G,[E,^G,E] |[M:6/4] z6 z2 z .G,3 |[M:4/4] x8 | %19
[M:2/4] x4 |[M:6/4] x12 |[M:9/8] E,6- E,2 z |] %22
V:4
 x6 | x6 | x6 | x6 | x6 | x6 | x6 | x6 |[M:2/4] x4 | x4 | x4 |[M:6/4] [EG]2 G G2 G G2 BBcd | %12
[M:4/4] G2 GG- GG G2 |[M:2/4] x4 |[M:6/4] z2 E E2 E E2 eedc |[M:4/4] D2 DD- DD D2 |[M:2/4] x4 | %17
[M:6/4] z2 E E2 E E2 EEDE |[M:4/4][K:bass] z2 G,G,- G,G, G,2 |[M:2/4] x[K:treble] x3 | %20
[M:6/4] z2 E E2 E E2 [CEA] [B,EG]2 [A,DF] |[M:9/8] G,3 CCC .B,3 |] %22

